icons/breezeDark/actions/24/document-export.svg

<svg viewBox="0 0 24 24" xmlns="http://www.w3.org/2000/svg"><path d="m4 3v12 1h5.2929688l-2.2929688 2.292969.7070312.707031 2.7929688-2.792969.707031-.707031-.707031-.707031-2.7929688-2.792969-.7070312.707031 2.2929688 2.292969h-4.2929688v-11h12v14h-6v1h6 1v-1-15h-1z" fill="#c0c0c0" transform="translate(1 1)"/></svg>

<svg xmlns="http://www.w3.org/2000/svg" viewBox="0 0 24 24">
  <defs id="defs3051">
    <style type="text/css" id="current-color-scheme">
      .ColorScheme-Text {
        color:#c0c0c0;
      }
      </style>
  </defs>
 <path 
    style="fill:currentColor;fill-opacity:1;stroke:none" 
    d="M 4 3 L 4 15 L 4 16 L 9.2929688 16 L 7 18.292969 L 7.7070312 19 L 10.5 16.207031 L 11.207031 15.5 L 10.5 14.792969 L 7.7070312 12 L 7 12.707031 L 9.2929688 15 L 5 15 L 5 4 L 17 4 L 17 18 L 11 18 L 11 19 L 17 19 L 18 19 L 18 18 L 18 3 L 17 3 L 4 3 z "
    class="ColorScheme-Text"
     transform="translate(1,1)"
    />  
</svg>
